X: 8
T: Inisheer
R: waltz
M: 3/4
L: 1/8
K: Gmaj
B3 A Bd|B3 A Bd|E3 B AB|D3 B Ad|B3 A Bd|B3 A Bd|G3 B AB|G6:|
|:e3 f ed|B3 A (3B^cd|ef ed Bd|e4 gf|e3 f ed|B3 A Bd|G3 B AB|G6:|


Tune 211	Setting 12882

